!!!!SEGMENT: Wil1006d-Missa_Osculetur_me-Sanctus
!!!id: Wil1006d
!!!AGN: Mass; Sanctus
!!!voices: 2-4
!!!OPR: Missa Osculetur me
!!!COM: Adrian Willaert
!!!OTL: Sanctus
**kern	**kern	**kern	**kern
*part4	*part3	*part2	*part1
*staff4	*staff3	*staff2	*staff1
*I"Bassus	*I"Tenor	*I"Altus	*I"Superius
*I'B	*I'T	*I'A	*I'S
*clefF4	*clefGv2	*clefG2	*clefG2
*k[b-]	*k[b-]	*k[b-]	*k[b-]
*F:	*F:	*F:	*F:
*M2/1	*M2/1	*M2/1	*M2/1
*met(C|)	*met(C|)	*met(C|)	*met(C|)
=1	=1	=1	=1
!!section: Sanctus
!!!OMD: Sanctus
0r	0r	0f	0r
=2	=2	=2	=2
0r	0r	1g	0r
.	.	[1f	.
=3	=3	=3	=3
0F	0r	2f]	0r
.	.	4e	.
.	.	4d	.
.	.	2c	.
.	.	[2d	.
=4	=4	=4	=4
1G	0r	2d]	0r
.	.	4c	.
.	.	4B-y	.
[1F	.	2A	.
.	.	[2a	.
=5	=5	=5	=5
2F]	0r	2a]	0cc
4E	.	4g	.
4D	.	4f	.
2E	.	2g	.
2F	.	2a	.
=6	=6	=6	=6
2BB-y	0r	2b-y	1dd
1F	.	1a	.
.	.	.	[1cc
4E	.	4g	.
4D	.	4f	.
=7	=7	=7	=7
0C	0c	2e	2cc]
.	.	1f	4b-y
.	.	.	4a
.	.	.	2g
.	.	2e	[2a
=8	=8	=8	=8
0r	1d	1f	2a]
.	.	.	4g
.	.	.	4f
.	[1c	1r	2e
.	.	.	[2ee
=9	=9	=9	=9
0r	2c]	0g	2ee]
.	4B-y	.	4dd
.	4A	.	4cc
.	2B-y	.	2dd
.	2c	.	2ee
=10	=10	=10	=10
1r	2F	1a	2ff
.	2.c	.	1ee
1C	.	[1g	.
.	4d	.	.
.	2e	.	4dd
.	.	.	4cc
=11	=11	=11	=11
0G	2d	2g]	2b-y
.	2.g	4f	1cc
.	.	4e	.
.	.	1d	.
.	4f	.	.
.	2g	.	2bnXi
=12	=12	=12	=12
1A	2e	2.c	[0cc
.	1f	.	.
.	.	4A	.
[1F	.	2A	.
.	4e	[2a	.
.	4d	.	.
=13	=13	=13	=13
2F]	2c	2a]	0cc]
4E	1f	4g	.
4D	.	4f	.
1C	.	2.g	.
.	2e	.	.
.	.	4c	.
=14	=14	=14	=14
1.F	2.f	1c	0a
.	4e	.	.
.	1c	2.f	.
2F	.	.	.
.	.	4g	.
=15	=15	=15	=15
1F	2r	4a	0r
.	.	4b-y	.
.	1f	1a	.
1B-y	.	.	.
.	4e	2g	.
.	4d	.	.
=16	=16	=16	=16
2.A	2f	1a	1.cc
.	2e	.	.
4G	.	.	.
4F	2.A	2r	.
4E	.	.	.
[2F	.	[2a	2cc
.	4G	.	.
=17	=17	=17	=17
2F]	4A	2a]	1cc
.	4B-y	.	.
2E	1c	2g	.
1D	.	2a	1ff
.	2BnXi	4g	.
.	.	4f	.
=18	=18	=18	=18
0C	2.c	2a	2.ee
.	.	2g	.
.	4B-y	.	4dd
.	2G	2.e	4cc
.	.	.	4b-y
.	[2A	.	[2cc
.	.	4d	.
=19	=19	=19	=19
1r	2A]	4e	2cc]
.	.	4f	.
.	2G	1g	2b-y
1D	[1d	.	1a
.	.	2f	.
=20	=20	=20	=20
2.G	1d]	2.b-y	2.g
4F	.	4a	4a
4G	2.d	2g	4b-y
4A	.	.	4cc
[2B-y	.	2f	[2dd
.	4c	.	.
=21	=21	=21	=21
2B-]	4d	2g	2dd]
.	4e	.	.
2A	1f	2a	2cc
1G	.	1b-y	2dd
.	2e	.	4cc
.	.	.	4b-y
=22	=22	=22	=22
0F	1f	1a	2dd
.	.	.	2cc
.	2r	2.f	2.a
.	[2f	.	.
.	.	4e	4g
=23	=23	=23	=23
1r	2f]	2d	4a
.	.	.	4b-y
.	2e	2c	1cc
2r	2f	1d	.
2G	2g	.	2bnXi
=24	=24	=24	=24
2A	1e	1c	2cc
1c	.	.	2g
.	1d	1G	2r
2BnXi	.	.	[2g
=25	=25	=25	=25
2c	2r	0r	2g]
1A	1c	.	2f
.	.	.	4e
.	.	.	4f
2G	2B-y	.	4g
.	.	.	4e
=26	=26	=26	=26
2A	1c	1r	2f
1c	.	.	2e
.	1G	2r	2d
2B-y	.	2d	[2g
=27	=27	=27	=27
2.c	2r	2e	2g]
.	1c	1g	2g
4B-y	.	.	.
1A	.	.	4a
.	.	.	4b-y
.	2c	2f	4cc
.	.	.	4a
=28	=28	=28	=28
2G	2d	2g	2b-y
1A	2c	1e	1cc
.	1f	.	.
2B-y	.	2d	2b-y
=29	=29	=29	=29
1c	1e	2e	2g
.	.	1g	1cc
1A	1c	.	.
.	.	2f#i	4b-y
.	.	.	4a
=30	=30	=30	=30
2.G	1.d	2g	2b-y
.	.	2.b-y	2g
4F	.	.	.
4G	.	.	1dd
4A	.	4a	.
[2B-y	2d	2g	.
=31	=31	=31	=31
4B-]	2.d	2f	0r
4A	.	.	.
2G	.	2b-y	.
.	4e	.	.
2F	4f	2a	.
.	4d	.	.
2c	2e-X	[2g	.
=32	=32	=32	=32
2B-y	2d	4g]	0r
.	.	4f	.
2A	1c	2.f	.
1G	.	.	.
.	.	4e	.
.	2B-y	4e	.
.	.	4d	.
=33	=33	=33	=33
1F	2c	1a	2r
.	2A	.	1cc
2E	2G	2r	.
[2F	[2A	[2a	2cc
=34	=34	=34	=34
2F]	2A]	2a]	2dd
2E	1c	2g	2cc
1D	.	2a	1ff
.	2BnXi	2d	.
=35	=35	=35	=35
2C	2.c	2.g	1ee
1c	.	.	.
.	4d	4f	.
.	2e	2g	1cc
2A	2f	2a	.
=36	=36	=36	=36
2.B-y	2d	2f	1.dd
.	2g	2b-y	.
4c	.	.	.
2d	4f	2a	.
.	4e	.	.
2G	4d	[2b-y	2dd
.	4c	.	.
=37	=37	=37	=37
1G	2.B-y	4b-]	2.dd
.	.	4a	.
.	.	2g	.
.	4c	.	4ee
1r	2d	2f	4ff
.	.	.	4dd
.	2G	[2g	2ee
=38	=38	=38	=38
0r	2B-y	4g]	2dd
.	.	4f	.
.	2c	2e	1cc
.	1G	1d	.
.	.	.	2bnXi
=39	=39	=39	=39
0r	2r	1c	1cc
.	2.g	.	.
.	.	1G	2r
.	4g	.	.
.	2g	.	[2dd
=40	=40	=40	=40
0r	2f	0r	4dd]
.	.	.	4dd
.	2g	.	2dd
.	2e	.	2cc
.	[2d	.	2dd
=41	=41	=41	=41
0r	2d]	0r	2.b-y
.	1g	.	.
.	.	.	8aL
.	.	.	8gJ
.	.	.	2a
.	2f#i	.	2a
=42	=42	=42	=42
2r	4g	1r	0g
.	4f	.	.
2.c	4e	.	.
.	4d	.	.
.	1e	2r	.
4c	.	.	.
2c	.	[2g	.
=43	=43	=43	=43
2B-y	0r	4g]	0r
.	.	4g	.
2c	.	2g	.
2A	.	2f	.
[2G	.	2g	.
=44	=44	=44	=44
2G]	0r	2.e	0r
1c	.	.	.
.	.	8dL	.
.	.	8cJ	.
.	.	2d	.
2BnXi	.	2d	.
=45	=45	=45	=45
1c	1r	2c	2r
.	.	2.e	2.cc
1c	2r	.	.
.	.	4e	4cc
.	[2g	2e	2cc
=46	=46	=46	=46
2G	4g]	2d	2b-y
.	4g	.	.
2c	2g	2e	2cc
2F	2f	4c	2a
.	.	4d	.
[2c	2g	4e	[2g
.	.	4f	.
=47	=47	=47	=47
2c]	2.e	4g	2g]
.	.	4e	.
2A	.	1a	1cc
.	8dL	.	.
.	8cJ	.	.
2F	2d	.	.
2G	2d	2g	2bnXi
=48	=48	=48	=48
2A	[0cl	2e	[0ccl
1F	.	1a	.
4E	.	4g	.
4D	.	4f	.
=49	=49	=49	=49
0Cl	0c]	0gl	0cc]
=50||	=50||	=50||	=50||
*M2/1	*M2/1	*M2/1	*M2/1
*met(C|)	*met(C|)	*met(C|)	*met(C|)
!!section: Pleni sunt
!!!OMD: Pleni sunt
0c	0r	0r	0r
=51	=51	=51	=51
1c	0r	0r	0r
1d	.	.	.
=52	=52	=52	=52
1.c	0g	0r	0r
4B-y	.	.	.
4A	.	.	.
=53	=53	=53	=53
2B-y	1g	0r	0r
2c	.	.	.
2F	1a	.	.
[2c	.	.	.
=54	=54	=54	=54
2c]	1.g	0r	0r
2B-y	.	.	.
1c	.	.	.
.	4f	.	.
.	4e	.	.
=55	=55	=55	=55
2r	1f	0r	0r
2A	.	.	.
2B-y	1g	.	.
[2c	.	.	.
=56	=56	=56	=56
2c]	2c	0r	0r
4B-y	1f	.	.
4A	.	.	.
2G	.	.	.
[2A	2e	.	.
=57	=57	=57	=57
4A]	2.f	0r	0r
4F	.	.	.
2.B-y	.	.	.
.	4e	.	.
.	2f	.	.
4A	.	.	.
4G	[2g	.	.
4F	.	.	.
=58	=58	=58	=58
4E	2g]	0r	0r
4C	.	.	.
1c	4f	.	.
.	4e	.	.
.	1d	.	.
2BnXi	.	.	.
=59	=59	=59	=59
0c	1c	0r	0r
.	2r	.	.
.	[2g	.	.
=60	=60	=60	=60
1r	2g]	0r	0r
.	2f	.	.
1c	2e	.	.
.	[2g	.	.
=61	=61	=61	=61
2B-y	2g]	0r	0r
2A	1c	.	.
1c	.	.	.
.	2e	.	.
=62	=62	=62	=62
2.F	2f	0r	0r
.	2.a	.	.
4G	.	.	.
2A	.	.	.
.	4g	.	.
[2B-y	4f	.	.
.	4e	.	.
=63	=63	=63	=63
4B-]	2.d	0r	0r
4c	.	.	.
1d	.	.	.
.	4e	.	.
.	2f	.	.
4c	[2g	.	.
4B-y	.	.	.
=64	=64	=64	=64
1A	2g]	0r	0r
.	2f#i	.	.
1G	[1g	.	.
=65	=65	=65	=65
2r	1g]	0r	0r
1c	.	.	.
.	1g	.	.
2B-y	.	.	.
=66	=66	=66	=66
4A	2f	0r	0r
4B-y	.	.	.
4c	2e	.	.
4A	.	.	.
2B-y	1g	.	.
[2c	.	.	.
=67	=67	=67	=67
4c]	2.c	0r	0r
4B-y	.	.	.
2.A	.	.	.
.	4d	.	.
.	2e	.	.
4G	.	.	.
4F	[2f	.	.
4E	.	.	.
=68	=68	=68	=68
2.D	4f]	0r	0r
.	4g	.	.
.	1a	.	.
4E	.	.	.
4F	.	.	.
4G	.	.	.
[2A	4g	.	.
.	4f	.	.
=69	=69	=69	=69
4A]	1e	0r	0r
4G	.	.	.
1c	.	.	.
.	1d	.	.
2BnXi	.	.	.
=70	=70	=70	=70
1c	2r	0r	0r
.	2.c	.	.
1r	.	.	.
.	4d	.	.
.	4e	.	.
.	4f	.	.
=71	=71	=71	=71
1c	4g	0r	0r
.	4a	.	.
.	1g	.	.
2B-y	.	.	.
2A	2f	.	.
=72	=72	=72	=72
2G	2e	0r	0r
2.B-y	2.d	.	.
4A	4c	.	.
4G	[2f	.	.
4F	.	.	.
=73	=73	=73	=73
1G	2f]	0r	0r
.	2e	.	.
[1F	2f	.	.
.	4F	.	.
.	4G	.	.
=74	=74	=74	=74
1F]	4A	0r	0r
.	4B-y	.	.
.	1c	.	.
1G	.	.	.
.	2B-y	.	.
=75	=75	=75	=75
2F	2A	0r	0r
2E	4G	.	.
.	4A	.	.
2D	4B-y	.	.
.	4c	.	.
[2F	[2d	.	.
=76	=76	=76	=76
4F]	4d]	0r	0r
4E	4c	.	.
4D	1c	.	.
4C	.	.	.
1D	.	.	.
.	2BnXi	.	.
=77	=77	=77	=77
0Cl	0cl	0r	0r
=78||	=78||	=78||	=78||
*M3/1	*M3/1	*M3/1	*M3/1
*met(O|3)	*met(O|3)	*met(O|3)	*met(O|3)
!!section: Osanna
!!!OMD: Osanna
0.r	0c	0.r	0.r
.	1c	.	.
=79	=79	=79	=79
0.r	1.e	0.r	0.r
.	2f	.	.
.	2g	.	.
.	2e	.	.
=80	=80	=80	=80
0F	1f	0.r	0.r
.	1c	.	.
1F	[1f	.	.
=81	=81	=81	=81
1.A	1f]	0.r	0cc
.	0e	.	.
2B-y	.	.	.
2c	.	.	1cc
2A	.	.	.
=82	=82	=82	=82
1B-y	0.r	1r	1dd
1F	.	0f	1.ff
[1B-y	.	.	.
.	.	.	2ee
=83	=83	=83	=83
1B-]	1r	1f	1dd
1A	0c	1.a	1cc
1F	.	.	1ff
.	.	2b-y	.
=84	=84	=84	=84
1A	1c	2cc	1ee
.	.	2a	.
1G	1.d	1b-y	1r
[1B-y	.	1f	[1dd
.	2e	.	.
=85	=85	=85	=85
1B-]	1f	0b-y	1dd]
1B-y	1d	.	1.ff
[1F	[1f	[1a	.
.	.	.	2ee
=86	=86	=86	=86
2F]	1f]	1a]	0dd
2G	.	.	.
0A	0e	0a	.
.	.	.	1cc#i
=87	=87	=87	=87
1D	0d	1a	0dd
0G	.	1.b-y	.
.	1r	.	1b-y
.	.	2a	.
=88	=88	=88	=88
1C	1r	0g	1cc
1D	0d	.	0a
1d	.	1f#i	.
=89	=89	=89	=89
1B-y	1d	0g	1r
0c	1.e	.	0g
.	.	1e	.
.	2d	.	.
=90	=90	=90	=90
1F	0c	1f	1a
0G	.	0d	1.g
.	1BnXi	.	.
.	.	.	2f
=91	=91	=91	=91
0C	0c	1c	2e
.	.	.	2d
.	.	1.G	1e
1r	[1G	.	[1d
.	.	2A	.
=92	=92	=92	=92
0.r	1G]	2B-y	2d]
.	.	2c	2e
.	1r	2d	2f
.	.	2G	2g
.	1r	[1d	2a
.	.	.	2d
=93	=93	=93	=93
0.r	0.r	2d]	0dd
.	.	2e	.
.	.	2f	.
.	.	2g	.
.	.	1a	1cc
=94	=94	=94	=94
0.r	1r	1d	0dd
.	0g	1.b-y	.
.	.	.	1b-y
.	.	2a	.
=95	=95	=95	=95
0.r	1c	0g	1cc
.	0d	.	0a
.	.	1f#i	.
=96	=96	=96	=96
1r	1G	0g	0.g
1.C	1r	.	.
.	[1G	1r	.
2D	.	.	.
=97	=97	=97	=97
2E	2G]	1.g	0.r
2F	2A	.	.
2G	2B-y	.	.
2C	2c	2a	.
[1G	2d	2b-y	.
.	2G	2g	.
=98	=98	=98	=98
2G]	0g	0b-y	0dd
2A	.	.	.
2B-y	.	.	.
2c	.	.	.
1d	1f	1a	1dd
=99	=99	=99	=99
1G	0g	1b-y	1dd
0c	.	0g	1.ee
.	1e	.	.
.	.	.	2dd
=100	=100	=100	=100
1F	1f	1a	0cc
0G	0d	0g	.
.	.	.	1bnXi
=101	=101	=101	=101
*M2/1	*M2/1	*M2/1	*M2/1
*met(C|)	*met(C|)	*met(C|)	*met(C|)
0C	1c	1g	2cc
.	.	.	2cc
.	1r	2r	2ee-X
.	.	2g	2ee-i
=102	=102	=102	=102
1G	2r	2b-y	2.dd
.	2d	2b-y	.
.	.	.	8ccL
.	.	.	8b-yJ
1F	2f	2.a	2cc
.	2f	.	[2dd
.	.	8gL	.
.	.	8fJ	.
=103	=103	=103	=103
0r	2e	2g	4dd]
.	.	.	4cc
.	2c	2.a	2cc
.	[1d	.	2f
.	.	4g	.
.	.	4f	[2ff
.	.	4e	.
=104	=104	=104	=104
0r	2d]	2d	2ff]
.	2c	2.g	2.ee
.	1B-y	.	.
.	.	4f	4dd
.	.	2d	[2dd
=105	=105	=105	=105
2r	1A	2e	2dd]
2A	.	1f	2cc
2B-y	2r	.	2dd
2B-y	[2d	4e	2g
.	.	4d	.
=106	=106	=106	=106
2A	4d]	2e	1a
.	4c	.	.
2F	2c	2f	.
[1G	2.B-y	[1d	2g
.	.	.	[2b-y
.	8AL	.	.
.	8GJ	.	.
=107	=107	=107	=107
2G]	4B-y	1d]	2b-]
.	4c	.	.
2F	1d	.	2a
1E	.	1G	1g
.	2c#i	.	.
=108	=108	=108	=108
0D	1d	1A	1f
.	1r	2r	[1a
.	.	2d	.
=109	=109	=109	=109
2r	1.A	2c	2a]
2.D	.	1f	2a
.	.	.	2.a
4E	.	.	.
[2F	2A	4e	.
.	.	4d	4b-y
=110	=110	=110	=110
2F]	2.A	2c	4cc
.	.	.	4a
4E	.	2f	1dd
4D	4B-y	.	.
1A	2c	1e	.
.	[2A	.	2cc#i
=111	=111	=111	=111
2F	2A]	2a	1dd
2G	1d	2b-y	.
1E	.	1g	2r
.	2c#i	.	2ee
=112	=112	=112	=112
1D	1d	2r	1ff
.	.	2a	.
1r	1r	2b-y	2dd
.	.	2g	[2ee
=113	=113	=113	=113
2r	0r	1a	2ee]
2A	.	.	4dd
.	.	.	4cc
2c	.	2.g	2ee
2G	.	.	[2dd
.	.	4f	.
=114	=114	=114	=114
[2A	0r	2e	4dd]
.	.	.	4cc
2A]	.	4d	1cc
.	.	4c	.
1G	.	1d	.
.	.	.	2bnXi
=115	=115	=115	=115
1C	2r	2c	0cc
.	2e	2g	.
2r	1f	2a	.
2A	.	[2f	.
=116	=116	=116	=116
2B-y	2d	2f]	1r
2G	1e	1g	.
1A	.	.	2r
.	4d	2f	[2cc
.	4c	.	.
=117	=117	=117	=117
1G	2e	1g	2cc]
.	2.d	.	2b-y
2.F	.	1a	1cc
.	4c	.	.
.	[2c	.	.
4E	.	.	.
=118	=118	=118	=118
1D	2c]	1f	1dd
.	2BnXi	.	.
2C	[1c	2r	2r
2c	.	2g	2ee
=119	=119	=119	=119
2A	2c]	2a	1ff
1B-y	1d	1f	.
.	.	.	2dd
4A	4c	[2g	[2ee
4G	4B-y	.	.
=120	=120	=120	=120
1A	1c	4g]	2ee]
.	.	4e	.
.	.	2f	4dd
.	.	.	4cc
2.G	1g	2B-y	2ee
.	.	[2b-y	[2dd
4A	.	.	.
=121	=121	=121	=121
2B-y	2.f	4b-]	4dd]
.	.	4f	4cc
2F	.	2a	1cc
.	4e	.	.
1G	1d	1g	.
.	.	.	2bnXi
=122	=122	=122	=122
0Cl	0cl	0gl	0ccl
=123||	=123||	=123||	=123||
*M2/1	*M2/1	*M2/1	*M2/1
*met(C|)	*met(C|)	*met(C|)	*met(C|)
!!section: Benedictus
!!!OMD: Benedictus
0c	0r	1r	0r
.	.	[1c	.
=124	=124	=124	=124
2.A	0r	1c]	0r
4F	.	.	.
2F	.	1d	.
[2G	.	.	.
=125	=125	=125	=125
4G]	0r	2.e	0r
4C	.	.	.
1c	.	.	.
.	.	4d	.
.	.	4e	.
.	.	4c	.
4B-y	.	[2f	.
4A	.	.	.
=126	=126	=126	=126
2B-y	0r	2f]	0r
1c	.	2e	.
.	.	1d	.
2BnXi	.	.	.
=127	=127	=127	=127
2c	0r	1c	1r
2.e	.	.	.
.	.	2r	[1g
4d	.	.	.
[2c	.	[2e	.
=128	=128	=128	=128
2c]	0r	4e]	1g]
.	.	4f	.
2B-y	.	1g	.
2c	.	.	1a
2d	.	2f	.
=129	=129	=129	=129
1G	0r	2d	2.b-y
.	.	1g	.
.	.	.	4a
1r	.	.	4b-y
.	.	.	4g
.	.	4f	[2cc
.	.	4e	.
=130	=130	=130	=130
0r	0r	2f	2cc]
.	.	1g	2b-y
.	.	.	1a
.	.	2f#i	.
=131	=131	=131	=131
1r	0r	2g	1g
.	.	2.c	.
2r	.	.	1cc
.	.	4d	.
[2c	.	2e	.
=132	=132	=132	=132
2c]	0r	2f	1dd
2B-y	.	1g	.
1c	.	.	2.ee
.	.	2d	.
.	.	.	4dd
=133	=133	=133	=133
2A	0r	1a	4ee
.	.	.	4cc
1d	.	.	1ff
.	.	2f	.
2c	.	[2g	[2ee
=134	=134	=134	=134
1B-y	0r	4g]	4ee]
.	.	4f	4dd
.	.	4f	1dd
.	.	8eL	.
.	.	8dJ	.
1A	.	1e	.
.	.	.	2cc#i
=135	=135	=135	=135
1D	0r	2r	1dd
.	.	2f	.
1r	.	2g	2b-y
.	.	[2a	[2cc
=136	=136	=136	=136
1r	0r	4a]	4cc]
.	.	4g	4b-y
.	.	1g	4b-y
.	.	.	8aL
.	.	.	8gJ
1d	.	.	1a
.	.	2f#i	.
=137	=137	=137	=137
2B-y	0r	2g	1g
2.c	.	1e	.
.	.	.	1r
4B-y	.	.	.
4B-y	.	2d	.
8AL	.	.	.
8GJ	.	.	.
=138	=138	=138	=138
1A	0r	4f	2r
.	.	4e	.
.	.	4d	1cc
.	.	4c	.
1G	.	1d	.
.	.	.	2b-y
=139	=139	=139	=139
2r	0r	2c	1cc
1A	.	2e	.
.	.	2f	2a
2G	.	4B-y	[2dd
.	.	4c	.
=140	=140	=140	=140
4B-y	0r	4d	4dd]
4A	.	4e	4cc
4G	.	1f	4b-y
4F	.	.	4a
1G	.	.	1b-y
.	.	2e	.
=141	=141	=141	=141
0F	0r	1f	[0a
.	.	2r	.
.	.	[2c	.
=142	=142	=142	=142
2r	0r	2c]	1a]
1F	.	2d	.
.	.	2c	2r
2A	.	2A	2cc
=143	=143	=143	=143
2G	0r	2B-y	2dd
2E	.	2c	1cc
2F	.	1d	.
2G	.	.	2bnXi
=144	=144	=144	=144
2C	0r	0r	2.cc
2.c	.	.	.
.	.	.	4b-y
.	.	.	4a
4B-y	.	.	4g
4A	.	.	[2cc
4G	.	.	.
=145	=145	=145	=145
2A	0r	0r	2cc]
1d	.	.	4b-y
.	.	.	4a
.	.	.	2b-y
2c	.	.	[2a
=146	=146	=146	=146
2B-y	0r	0r	4a]
.	.	.	4g
4A	.	.	1g
4G	.	.	.
1A	.	.	.
.	.	.	2f#i
=147	=147	=147	=147
1G	0r	2r	4g
.	.	.	4f
.	.	1g	4e
.	.	.	4d
[1c	.	.	1e
.	.	2a	.
=148	=148	=148	=148
1c]	0r	2g	0r
.	.	2e	.
1B-y	.	2f	.
.	.	2g	.
=149	=149	=149	=149
2.A	0r	2c	0r
.	.	2.f	.
4G	.	.	.
2A	.	.	.
.	.	4e	.
[2B-y	.	4d	.
.	.	4c	.
=150	=150	=150	=150
4B-]	0r	2d	0r
4A	.	.	.
2B-y	.	1g	.
2c	.	.	.
[2d	.	2f	.
=151	=151	=151	=151
4d]	0r	2.e	1r
4c	.	.	.
1c	.	.	.
.	.	8dL	.
.	.	8cJ	.
.	.	1d	2r
4B-y	.	.	[2dd
4A	.	.	.
=152	=152	=152	=152
2B-y	0r	0g	2dd]
2c	.	.	2ee
2r	.	.	2dd
2G	.	.	2b-y
=153	=153	=153	=153
2A	0r	1f	2cc
2B-y	.	.	2dd
2c	.	2.e	2g
[2A	.	.	[2cc
.	.	4d	.
=154	=154	=154	=154
4A]	0r	2e	4cc]
4G	.	.	4b-y
4F	.	2.f	4a
4E	.	.	4g
2D	.	.	2a
.	.	4e	.
[2B-y	.	2f	[2dd
=155	=155	=155	=155
2B-]	0r	2g	2dd]
2F	.	2.a	2cc
1G	.	.	2.b-y
.	.	4g	.
.	.	[2g	.
.	.	.	8aL
.	.	.	8gJ
=156	=156	=156	=156
1D	0r	2g]	1a
.	.	2f	.
2.G	.	2e	[1g
.	.	2d	.
4F	.	.	.
=157	=157	=157	=157
2E	0r	2r	2g]
4D	.	2c	1a
4C	.	.	.
1D	.	2c	.
.	.	2BnXi	4g
.	.	.	4f
=158	=158	=158	=158
2r	0r	2.c	1e
2A	.	.	.
.	.	4d	.
2.A	.	2e	2r
.	.	2f	2cc
8GL	.	.	.
8FJ	.	.	.
=159	=159	=159	=159
2G	0r	1d	2cc
2G	.	.	2bnXi
1F	.	2r	2.cc
.	.	2a	.
.	.	.	4dd
=160	=160	=160	=160
1r	0r	2.a	2ee
.	.	.	2ff
.	.	8gL	.
.	.	8fJ	.
2r	.	2g	2dd
2d	.	2a	[2ff
=161	=161	=161	=161
2d	0r	1f	2ff]
4c	.	.	4ee
4B-y	.	.	4dd
2c	.	2r	2ee
2A	.	2c	[2ff
=162	=162	=162	=162
2B-y	0r	2d	2ff]
1c	.	2e	2ee
.	.	2f	1dd
2BnXi	.	[2g	.
=163	=163	=163	=163
2.c	0r	4g]	1cc
.	.	4e	.
.	.	2a	.
8B-yL	.	.	.
8AJ	.	.	.
4B-y	.	4g	1r
4A	.	4f	.
4G	.	[2f	.
4F	.	.	.
=164	=164	=164	=164
1G	0r	2f]	2r
.	.	2e	2g
2r	.	2f	2a
2G	.	2d	2b-y
=165	=165	=165	=165
2c	0r	2e	2cc
2B-y	.	2f	2.dd
1G	.	1g	.
.	.	.	4b-y
.	.	.	2ee-i
=166	=166	=166	=166
2B-y	0r	1f	2dd
2A	.	.	1cc
1G	.	2r	.
.	.	2d	2bnXi
=167	=167	=167	=167
2r	0r	2e	1cc
2A	.	2f	.
2B-y	.	2.g	2r
2c	.	.	2cc
.	.	8fL	.
.	.	8eJ	.
=168	=168	=168	=168
2.d	0r	2f	2a
.	.	2d	2b-y
8cL	.	.	.
8B-yJ	.	.	.
2c	.	4e	4g
.	.	4f	4a
[2B-y	.	4g	4b-y
.	.	4e	4cc
=169	=169	=169	=169
4B-]	0r	4f	4dd
4c	.	4e	4g
2A	.	4d	1cc
.	.	4c	.
1G	.	2d	.
.	.	2d	2bnXi
=170	=170	=170	=170
0Cl	0r	0cl	0ccl
==	==	==	==
*-	*-	*-	*-
!!!system-decoration: s1,s2,s3,s4
!!!RDF**kern: i = editorial accidental
!!!RDF**kern: l = terminal long
!!!ENC: Maura Sugg
!!!END: 2026/3/29
!!!EED: Benjamin Ory
!!!EEV: 2026/04/22
!!!YEC: Copyright 2026 Irene Holzer, All Rights Reserved
!!!ONB: Translated from MusicXML on 2026/04/22
!!!verovio: header encoded
!!!header-left: Edited by Irene Holzer\n
!!!header-right:
!!!header-center: